SVG-Logos/Frameworks-Languages-IDEs/IDE/jetbrains-ide-icon.svg

<svg xmlns="http://www.w3.org/2000/svg" width="75" height="75" viewBox="0 0 75 75" fill="none">
<g clip-path="url(#clip0_70_24985)">
<path d="M0 0H75V75H0V0Z" fill="black"/>
<path d="M8.16211 60.9377H36.2871V65.6252H8.16211V60.9377Z" fill="white"/>
<path d="M6.98828 19.3379L9.07579 17.3629C9.27444 17.6764 9.54451 17.9384 9.8639 18.1274C10.1833 18.3164 10.5429 18.4271 10.9133 18.4504C11.7133 18.4504 12.2383 17.8879 12.2383 16.8004V9.40039H15.4633V16.8254C15.5115 17.4233 15.4341 18.0246 15.236 18.5908C15.038 19.157 14.7237 19.6754 14.3133 20.1129C13.8895 20.5267 13.3866 20.8508 12.8345 21.0656C12.2825 21.2804 11.6928 21.3815 11.1008 21.3629C10.3008 21.3951 9.50546 21.2267 8.78718 20.873C8.0689 20.5194 7.4505 19.9916 6.98828 19.3379Z" fill="white"/>
<path d="M16.9125 9.40039H26.325V12.1379H20.075V13.9254H25.6875V16.4254H20.125V18.2879H26.375V21.0379H16.875L16.9125 9.40039Z" fill="white"/>
<path d="M30.9141 12.2379H27.4141V9.40039H37.6766V12.2379H34.1641V21.1004H30.9141V12.2379Z" fill="white"/>
<path d="M8.28516 25.725H13.8102C14.3837 25.6779 14.9609 25.7453 15.5082 25.9234C16.0554 26.1016 16.5617 26.3868 16.9977 26.7625C17.2461 27.0116 17.4418 27.3083 17.5728 27.6347C17.7038 27.9612 17.7675 28.3108 17.7602 28.6625C17.7695 29.2329 17.5996 29.7919 17.2744 30.2606C16.9493 30.7293 16.4852 31.0841 15.9477 31.275C16.6127 31.3969 17.2123 31.7523 17.6386 32.2771C18.0648 32.8019 18.2897 33.4617 18.2727 34.1375C18.2727 36.25 16.6352 37.5 13.8352 37.5H8.28516V25.725ZM14.5352 29.3375C14.5352 28.6875 14.0102 28.3375 13.0602 28.3375H11.4477V30.3875H13.0102C13.9852 30.3875 14.5602 30.05 14.5602 29.375L14.5352 29.3375ZM13.4102 32.6625H11.4477V34.825H13.4727C14.4727 34.825 15.0227 34.4375 15.0227 33.75C14.9977 33.0875 14.5227 32.6625 13.4352 32.6625H13.4102Z" fill="white"/>
<path d="M19.3141 25.7253H24.5016C25.1883 25.6694 25.8792 25.7512 26.5339 25.9658C27.1886 26.1805 27.7938 26.5237 28.3141 26.9753C28.665 27.3339 28.9382 27.7609 29.1167 28.2297C29.2952 28.6986 29.3752 29.1992 29.3516 29.7003C29.3741 30.4784 29.1539 31.2442 28.7217 31.8915C28.2894 32.5388 27.6664 33.0355 26.9391 33.3128L29.7391 37.5003H25.9891L23.6266 33.9503H22.5391V37.5003H19.2891L19.3141 25.7253ZM24.3141 31.3503C25.4016 31.3503 26.0641 30.8128 26.0641 29.9503C26.0641 29.0128 25.3766 28.5378 24.3016 28.5378H22.5641V31.3753L24.3141 31.3503Z" fill="white"/>
<path d="M33.8629 25.6379H36.9879L41.9879 37.4379H38.5004L37.6629 35.3254H33.1254L32.2879 37.5004H28.9004L33.8629 25.6379ZM36.7129 32.8004L35.4004 29.4879L34.0754 32.8004H36.7129Z" fill="white"/>
<path d="M42.502 25.6875H45.752V37.4H42.502V25.6875Z" fill="white"/>
<path d="M46.9512 25.6875H50.0012L54.2137 31.9375V25.6875H57.4262V37.4H54.5887L50.1762 30.975V37.4H46.9512V25.6875Z" fill="white"/>
<path d="M57.9629 35.6628L59.7629 33.5003C60.8172 34.3817 62.1391 34.8797 63.5129 34.9128C64.4004 34.9128 64.8629 34.6003 64.8629 34.1003C64.8629 33.5878 64.4879 33.3378 62.8754 32.9628C60.3754 32.3878 58.4629 31.7128 58.4629 29.3003C58.4629 27.1253 60.1879 25.5503 63.0004 25.5503C64.7389 25.4852 66.4442 26.0388 67.8129 27.1128L66.2504 29.3378C65.3048 28.6233 64.1601 28.2214 62.9754 28.1878C62.1879 28.1878 61.8004 28.5003 61.8004 28.9378C61.8004 29.4753 62.2004 29.7128 63.8379 30.0753C66.5254 30.6628 68.1879 31.5378 68.1879 33.7253C68.1879 36.1128 66.3004 37.4753 63.4629 37.4753C61.4701 37.5602 59.5148 36.9158 57.9629 35.6628Z" fill="white"/>
</g>
<defs>
<clipPath id="clip0_70_24985">
<rect width="75" height="75" fill="white"/>
</clipPath>
</defs>
</svg>

<svg xmlns="http://www.w3.org/2000/svg" fill="none" viewBox="0 0 75 75"><g clip-path="url(#a)"><path fill="#000" d="M0 0h75v75H0V0Z"/><path fill="#fff" d="M8.162 60.938h28.125v4.687H8.162v-4.687ZM6.988 19.338l2.088-1.975a2.35 2.35 0 0 0 1.837 1.087c.8 0 1.325-.562 1.325-1.65V9.4h3.225v7.425a4.3 4.3 0 0 1-1.15 3.288 4.4 4.4 0 0 1-3.212 1.25 4.8 4.8 0 0 1-4.113-2.025ZM16.913 9.4h9.412v2.738h-6.25v1.787h5.613v2.5h-5.563v1.863h6.25v2.75h-9.5L16.913 9.4ZM30.914 12.238h-3.5V9.4h10.263v2.838h-3.513V21.1h-3.25v-8.862ZM8.285 25.725h5.525a4.34 4.34 0 0 1 3.188 1.037 2.615 2.615 0 0 1 .762 1.9 2.726 2.726 0 0 1-1.812 2.613 2.838 2.838 0 0 1 2.325 2.863c0 2.112-1.638 3.362-4.438 3.362h-5.55V25.725Zm6.25 3.612c0-.65-.525-1-1.475-1h-1.612v2.05h1.562c.975 0 1.55-.337 1.55-1.012l-.025-.038Zm-1.125 3.326h-1.962v2.162h2.025c1 0 1.55-.388 1.55-1.075-.025-.663-.5-1.087-1.588-1.087h-.025ZM19.314 25.725h5.188a5.176 5.176 0 0 1 3.812 1.25 3.651 3.651 0 0 1 1.038 2.725 3.75 3.75 0 0 1-2.413 3.613l2.8 4.187h-3.75l-2.362-3.55h-1.088v3.55h-3.25l.025-11.775Zm5 5.625c1.088 0 1.75-.537 1.75-1.4 0-.937-.687-1.412-1.762-1.412h-1.738v2.837l1.75-.025Z"/><path fill="#fff" d="M33.863 25.638h3.125l5 11.8H38.5l-.837-2.113h-4.538l-.837 2.175H28.9l4.963-11.862Zm2.85 7.162L35.4 29.488 34.075 32.8h2.638ZM42.502 25.688h3.25V37.4h-3.25V25.688ZM46.951 25.688h3.05l4.213 6.25v-6.25h3.212V37.4H54.59l-4.413-6.425V37.4h-3.225V25.688ZM57.963 35.663l1.8-2.163a6.075 6.075 0 0 0 3.75 1.413c.887 0 1.35-.313 1.35-.813 0-.512-.375-.762-1.988-1.137-2.5-.575-4.412-1.25-4.412-3.663 0-2.175 1.725-3.75 4.537-3.75a7.35 7.35 0 0 1 4.813 1.563l-1.563 2.225a5.7 5.7 0 0 0-3.275-1.15c-.787 0-1.175.312-1.175.75 0 .537.4.775 2.038 1.137 2.687.588 4.35 1.463 4.35 3.65 0 2.388-1.888 3.75-4.725 3.75a8.2 8.2 0 0 1-5.5-1.812Z"/></g><defs><clipPath id="a"><path fill="#fff" d="M0 0h75v75H0z"/></clipPath></defs></svg>
